packages/kaspersky-hexa-ui-icons/src/iconsSVGs/16/Android.svg

<svg width="16" height="16" viewBox="0 0 16 16" fill="none" xmlns="http://www.w3.org/2000/svg">
<path d="M6.66678 9.00004C6.66678 9.55232 6.21907 10 5.66678 10C5.1145 10 4.66678 9.55232 4.66678 9.00004C4.66678 8.44775 5.1145 8.00004 5.66678 8.00004C6.21907 8.00004 6.66678 8.44775 6.66678 9.00004Z" fill="black"/>
<path d="M10.3334 10C10.8857 10 11.3334 9.55232 11.3334 9.00004C11.3334 8.44775 10.8857 8.00004 10.3334 8.00004C9.78113 8.00004 9.33341 8.44775 9.33341 9.00004C9.33341 9.55232 9.78113 10 10.3334 10Z" fill="black"/>
<path fill-rule="evenodd" clip-rule="evenodd" d="M1.54048 2.87373C1.79432 2.61989 2.20588 2.61989 2.45972 2.87373L4.15776 4.57177C5.24283 3.80232 6.56865 3.35004 8.0001 3.35004C9.43155 3.35004 10.7574 3.80232 11.8424 4.57177L13.5405 2.87373C13.7943 2.61989 14.2059 2.61989 14.4597 2.87373C14.7136 3.12757 14.7136 3.53913 14.4597 3.79297L12.8269 5.42574C13.9569 6.61771 14.6501 8.22793 14.6501 10V11.8788C14.6501 12.6729 14.0063 13.3167 13.2122 13.3167H2.78798C1.99386 13.3167 1.3501 12.6729 1.3501 11.8788V10C1.3501 8.22793 2.04326 6.61771 3.17325 5.42574L1.54048 3.79297C1.28664 3.53913 1.28664 3.12757 1.54048 2.87373ZM8.0001 4.65004C5.04537 4.65004 2.6501 7.04531 2.6501 10V11.8788C2.6501 11.955 2.71183 12.0167 2.78798 12.0167H13.2122C13.2884 12.0167 13.3501 11.955 13.3501 11.8788V10C13.3501 7.04531 10.9548 4.65004 8.0001 4.65004Z" fill="black"/>
</svg>

<svg xmlns="http://www.w3.org/2000/svg" width="16" height="16" fill="none" viewBox="0 0 16 16"><path fill="#000" d="M6.667 9c0 .552-.448 1-1 1s-1-.448-1-1 .448-1 1-1 1 .448 1 1m3.666 1c.552 0 1-.448 1-1s-.448-1-1-1-1 .448-1 1 .448 1 1 1"/><path fill="#000" fill-rule="evenodd" d="M1.5405 2.8737a.65.65 0 0 1 .9192 0l1.698 1.698C5.2429 3.8024 6.5688 3.35 8.0002 3.35s2.7573.4523 3.8423 1.2218l1.6981-1.698a.65.65 0 1 1 .9192.9192L12.827 5.4257c1.13 1.192 1.8232 2.8022 1.8232 4.5743v1.8788c0 .7941-.6438 1.4379-1.4379 1.4379H2.788c-.7941 0-1.4379-.6438-1.4379-1.4379V10c0-1.772.6932-3.3823 1.8232-4.5743L1.5404 3.793a.65.65 0 0 1 0-.9193M8 4.65c-2.9547 0-5.35 2.3953-5.35 5.35v1.8788c0 .0762.0617.1379.1379.1379h10.4242a.138.138 0 0 0 .1379-.1379V10c0-2.9547-2.3953-5.35-5.35-5.35" clip-rule="evenodd"/></svg>
